X:1
T:Coppelia
T:Coppelia
T:Delibes
C:Delibes
%%score 1 2 3
L:1/8
M:2/4
K:Eb
V:1 treble nm="Flute" snm="Fl."
V:2 treble transpose=-2 nm="B♭ Clarinet" snm="B♭ Cl."
V:3 treble transpose=-2 nm="B♭ Clarinet" snm="B♭ Cl."
V:1
"^Allegro"!mf! EE/F/ G/E/F/G/ |!<(! F!>!f !>!f2!<)! | FF/G/ A/F/G/A/ |!<(! G!>!g !>!g2!<)! | %4
!f! GG/=A/"_cresc." =B/G/A/B/ | cc/d/ e/c/d/e/ | ff/g/ =a/f/d'/c'/ | %7
 c'/b/_a/f/"_rall" d/B/A/!fermata!F/ | z"^MARCHE DE LA CLOCHE\nAllegro moderato" G z G | z A z A | %10
 z G z G | z A z A | e'c' Td'2 | e'c' Td'2 |!<(! ef gb!<)! | b=a b z | f'd' T=e'2 | f'd' T=e'2 | %18
!<(! fg ac'!<)! | bf' e' z | e'c' Td'2 | e'c' Td'2 |!<(! ef gb!<)! | b=a b z | f'd' T=e'2 | %25
 f'd' T=e'2 |!<(! fg ac'!<)! | b!>!b !>!e' z |[K:Ab]!p! c2 G2 | A2- A3/2 z/ | A2 E2 | E2 z2 | %32
 A2 z2 | A2 z2 | A2 A2 |!<(! A2 G2!<)! | a2 e2 | e2- e>f | d>c B>e | c>B A>e | f2 g>f | e2 f>a | %42
 c2 B>c |"^rit." B2 A2 |[K:Eb]!mf! e'c' Td'2 | e'c' Td'2 | ef gb |!<(! b=a b z!<)! | f'd' T=e'2 | %49
 f'd' T=e'2 | fg ac' |!<(! bf' e' z!<)! | e'c' Td'2 | e'c' Td'2 | e'f' g'b' |!<(! b'=a' b' z!<)! | %56
 f'd' T=e'2 | f'd' T=e'2 | fg ac' |!<(! bb e' z!<)! | d'=b T^c'2 | d'=b T^c'2 |!<(! dd ^fa!<)! | %63
[K:G]!ff! c'2!f! d2 |:[M:3/4]"^MAZURKA\nTempo di Mazurka" !>!c'>b a2 a2 | !>!a>b g3 f | %66
 e>g c'2 e'>f' | f'>g' d'4 | !>!e'>e' f2 e'2 | d'2 d'>c' b2 | !>!a>a A2 g2 | f2 f>e d2 | %72
 !>!c'>b a2 a2 | !>!a>b g3 f | e>g c'2 e'>f' | f'>g' d'4 | e'>e' f2 e'2 | d'2 d'>c' b2 | %78
 c'2 e>a f>b |1 g2 !>!g'2 d2 :|2 g2 !>!g'2 z2 |:!ff! d2 d2 d2 | d2 d2 d2 | !>!d2 !>!d2 !>!d2 | %84
 d2 d2 d2 | d2 d2 d2 | d2 d2 d2 | !>!d2 !>!d2 !>!d2 | d2 d2 d2 |!p! f>^c' c'2 c'>^d' | %90
 ^c'>b b>^a b2 | f>^c' c'2 c'>d' | b2 f'2 z2 | f>^c' c'2 c'>^d' | ^c'>b b>^a b2 | %95
 f>^c' c'2 c'>^d' |1 b2 !>!b2 z2 :|2 b2{/c'} b>^a!f! b2 ||"^rot."{/^c'} b>^a b2{/=c'} b>a | %99
!<(! Tb6!<)! | Tb6 |"^a tempo"!ff! !>!c'>b a2 a2 | !>!a>b g3 f | e>g c'2 e'>f' | f'>g' d'4 | %105
 e'>e' f2 e'2 | d'2 d'>c' b2 | a>a A2 g2 | f2 f>e d2 | c'>b a2 a2 | a>b g3 f | e>g c'2 e'>f' | %112
 f'>g' d'4 | !>!e'>e' f2 e'2 | d'2 d'>c' b2 | c'2 e>a f>b | g2 g'2 z2 || %117
 z2"^VALSE DE LA POUPEE\nTempo di Valse" d2 d2 |"_cresc." c2 d2 d2 | A2 d2 d2 | F2 d2 d2 | %121
 z2 d2 d2 |"_cresc." c2 d2 d2 | A2 d2 d2 | z2!p! .B.d .G.d |: .c.d .A.d .c.d | .A.d .c.d .A.d | %127
 B>d !>!f4- | f>g !>!e4- | e>f !>!d4- | d>e c>d A>c | B>d G4- | G2 .B.d .G.d | .c.d .A.d .c.d | %134
 .A.d .c.d .A.d | B>d !>!f4- | f>g !>!e4- | e>f !>!d4- | d>e c>d A>c | B>d G4- |1 G2 .B.d .G.d :|2 %141
 G2 f.g .f.g || .a.a .d'.a .a2 | .g.g .d'.g .g2 | .f.f .d'.f .f2 | a>a e4 |!<(! b>^c' b z b z!<)! | %147
 b>_b a z a z | a>^g =g z g z | g>^e ff g^g | .a.a .d'.a .a2 | .g.g .d'.g .g2 | .f.f .d'.f .f2 | %153
 b>^c'!<(! b z!p! b z!<)! | b>_b a z a z | a>^g =g z ^c z | !>!e2"_cresc." d z d2 | c2 d2 d2 | %158
 c2 d2 d2 |!<(! A2 d2 d2!<)! | F2 d2 d2 | z2 .B.d .G.d | .c.d .A.d .c.d | .A.d .c.d .A.d | %164
 B>d !>!f4- | f>g !>!e4- | e>f !>!d4- | d>e c>d A>c | B>d G4- | G2 .B.d .G.d | .c.d .A.d .c.d | %171
 .A.d .c.d .A.d | B>d !>!f4- | f>g !>!e4- | e>f !>!d4- | d>e c>d A>c | B>d G4- | G2 z z z z | %178
!<(! G6!<)! | !fermata!G6 ||[K:C][M:2/4]"^THEME SLAVE\nAllegretto non troppo" z3!p! G |: Ge f>B | %182
 a/ z/ !>!g2 e/g/ | .f.d AB | c/e/ !>!G2 G |!<(! .G.e f>B!<)! | a/ z/ !>!g2 e/g/ | .f.d A>B | %188
 dc- cg | ^f>e cA | e !>!d2 B | c>A cd | B/c/ d2 g | ^f>e c'e | e/^f/ d2 B/d/ | gd/c/ BA | %196
 A G2 !fermata!c' |!mf! b>a fB | a/ z/ !>!g2 e | fd A>B |!<(! c/e/ G2 !>!c'!<)! | b>a fB | %202
 a/ z/ !>!g2 e | fd A>B |1!>(! d c2 G!>)! :|2 c2 !>!c'2 ||[K:Ab][M:3/4]"^VALSE" z2!mp! A2 z2 | %207
 z2 A2 z2 | z2 A2 z2 | z2 A2!p! ce | a4 bg | f4 ge | c2 B2 A2 | c2 z2 ce | a4 bg | f4 ge | %216
 d2 c2 B2 | d2 z2!<(! cd!<)! | a4!>(! g_g!>)! | f2 z2!<(! GB!<)! | f4!>(! =e_e!>)! | %221
 d2 z2!<(! EG!<)! | B4!<(! EG!<)! | =B4!<(! EG!<)! | c6- | c2 z2 z2 | z2 A2 z2 | z2 A2 z2 | %228
 z2 A2 z2 | z2 A2 z2 | z2 A2 z2 | z2 A2 z2 | z2 G2 z2 | z2 G2 z2 | z2 F2 z2 | z2 _F2 z2 | %236
 z2 c2 z2 | z2 c2 z2 | z2 D2 z2 | z2 D2 z2 | z2 z4 | a2 z4 | z!f! e =de de | =de de de | %244
 z e =de de | =de de de |!<(! de de de!<)! | de de z z | z2!p! A2 z2 | z2 A2 z2 | z2 A2 z2 | %251
 z2 A2 z2 | z2 A2 z2 | z2 A2 z2 | z2 G2 z2 | z2 G2 z2 | z2 G2 z2 | z2 G2 z2 | z2 G2 z2 | z2 G2 z2 | %260
 z2 D2 z2 | z2 D2 z2 | A2 z4 | A2 z4 | z2 A2 z2 | z2 A2 z2 | z2 A2 z2 | z2 A2 z2 | z2 A2 z2 | %269
 z2 A2 z2 | z2 G2 z2 | z2 G2 z2 | z2 !>!F2 z2 | z2 _F2 z2 | z2 D2 z2 | z2 C2 z2 | z2 D2 z2 | %277
 z2 D2 z2 |"^Allegro"!ff! E2 a2 a2 | a2 a2 a2 | a2 a2 a2 | a2 a2 a2 | a2 z4 |"^Presto" a'2 z4 | %284
 A2 z4 | a'2 z4 |!<(! A6-!<)! | A6 | !>!a2 z4 |] %289
V:2
[K:F]!mf! CC CC |!<(! _D!>!_d !>!dd!<)! | CC CC |!<(! C!>!c !>!cc!<)! |!f! GG"_cresc." GG | FF FF | %6
 =BB BB | B2 z2 | z F z F | z E z E | z F z F | z E z E | fd Te2 | fd Te2 |!<(! FG AG!<)! | %15
 FG E z | ge T^f2 | ge T^f2 |!<(! GA BG!<)! | GB A z | fd Te2 | fd Te2 |!<(! fg fg!<)! | ff e z | %24
 ge T^f2 | ge T^f2 |!<(! ga gg!<)! | g!>!c !>!f z |[K:Bb]!p! B,2 C2 | D2 B,2 | G,2 A,2 | B,2 D2 | %32
 E2 C2 | D2 B,2 | G,>A, B,>D |!<(! C2 E2!<)! | B,2 C2 | D2 B,2 | G,2 A,2 | B,2 D2 | E2 C2 | B2 z2 | %42
 z2 E2 | E2 D2 |[K:F]!mf! fd Te2 | fd Te2 | FG AG |!<(! FF E z!<)! | ge T^f2 | ge T^f2 | GA BB | %51
!<(! BB A z!<)! | fd Te2 | fd Te2 | fg ag |!<(! ff e z!<)! | ge T^f2 | ge T^f2 | GA BB | %59
!<(! ac f z!<)! | e^c T^d2 | e^c T^d2 |!<(! BB d^g!<)! |[K:A]!ff! g2 z2 |:[M:3/4] z2!f! e4 | %65
 z2 e4 | z2 A4 | z2 A4 | z2 e4 | z2 A4 | z2 A4 | z2 B4 | z2 G4 | z2 E4 | z2 A4 | z2 A4 | z2 e4 | %77
 z2 =G4 | z2 d3/2 z/ d3/2 z/ |1 A2 !>!c'2 z2 :|2 A2 !>!c'2 z2 |:!ff! A2 A2 A2 | A2 A2 A2 | %83
 !>!A2 !>!A2 !>!A2 | A2 A2 A2 | A2 A2 A2 | A2 A2 A2 | !>!A2 !>!A2 !>!A2 | A2 A2 A2 |!p! ^B6 | ^e6 | %91
 ^B6 | ^e6 | ^B6 | ^e6 | ^B6 |1 ^e6 :|2 ^c6 || z6 | z6 | z6 | z2 e2 e2 | z2 e4 | z2 A2 A2 | z2 A4 | %105
 z2 e2 e2 | z2 A4 | z2 A2 A2 | z2 B4 | z2 G2 G2 | z2 E4 | z2 A2 A2 | z2 A4 | z2 e2 e2 | z2 =G4 | %115
 z2 d3/2 z/ d3/2 z/ | A2 c'2 z2 ||!mf! !>!e2 z4 | z6 | z6 | z6 | !>!e2 z4 | z6 | z6 | e2 z4 |: %125
!p! e z z4 | z6 | z4 e2 | z4 e2 | z4 e2 | z4 d2 | z4 z2 | z4 z2 | e z z2 z2 | z6 | z4 e2 | z4 e2 | %137
 z4 e2 | z4 d2 | z4 z2 |1 z4 z2 :|2 z6 || e6 | e6 | B6 | B6 |!<(! B6!<)! | G6 | A6 | G6 | e6 | e6 | %152
 B6 | B6 | A6 | B6 | G2 z4 | z6 | z6 | z6 | z6 | e2 z4 | e z z4 | z6 | z4 e2 | z4 e2 | z4 e2 | %167
 z4 d2 | z4 z2 | z4 z2 | e z z2 z2 | z6 | z4 e2 | z4 e2 | z4 e2 | z4 d2 | z4 z2 | z4 z2 | %178
!<(! E6!<)! | !fermata!E6 ||[K:D][M:2/4]!p! .A.d .A.d |: .A.c .A.c | .A.d .A.d | .A.d .A.d | %184
 .A.d .A.d |!<(! .A.d .A.d!<)! | .A.d .A.d | .A.c .A.c | .A.d .A z | d3/2 z/ z2 | d !>!c2 z | z4 | %192
 z4 | z4 | z4 | z3 ^G | ^G =G2 !fermata!z |!mf! g3/2 z/ z2 | f/ z/ !>!f2 =c | B2 G2 | z4 | %201
 g3/2 z/ z2 | f/ z/ !>!f2 =c | B2 G2 |1!>(! G F2 z!>)! :|2 F2 !>!a2 ||[K:Bb][M:3/4] z2!mp! F2 z2 | %207
 z2 F2 z2 | z2 F2 z2 | z2!p! F2 z2 | z2 F2 z2 | z2 F2 z2 | z2 F2 z2 | z2 F2 z2 | z2 F2 z2 | %215
 z2 F2 z2 | z2 F2 z2 | z2 F2 z2 | z2 F2 z2 | z2 A2 z2 | z2 A2 z2 | z2 A2 z2 | z2 E2 z2 | z2 E2 z2 | %224
 d'b fB FD | B,2 F2 z2 | B,2 D2 z2 | F,2 D2 z2 | B,2 D2 z2 | F,2 D2 z2 | B,2 D2 z2 | F,2 D2 z2 | %232
 C2 E2 z2 | F,2 E2 z2 | C2 E2 z2 | C2 E2 z2 | F,2 B,2 z2 | F,2 B,2 z2 | F,2 A,2 z2 | F,2 A,2 z2 | %240
 B2 F2 D2 | B,2 z4 | !>!F2 z4 | z6 | !>!F2 z4 | z6 | z6 | z4!p! df | b4 c'a | g4 af | d2 c2 B2 | %251
 d2 z2 df | b4 c'a | g4 af | e2 d2 c2 | e2 z2!<(! de!<)! | b4!>(! a_a!>)! | g2 z2!<(! Ac!<)! | %258
 g4!>(! ^f=f!>)! | e2 z2 FA | c4 FA | ^c4 FA | d6- | d2 z2 z2 | B,2 D2 z2 | F,2 D2 z2 | B,2 D2 z2 | %267
 F,2 D2 z2 | B,2 D2 z2 | F,2 D2 z2 | C2 E2 z2 | F,2 E2 z2 | C2 E2 z2 | F,2 E2 z2 | F,2 B,2 z2 | %275
 F,2 B,2 z2 | F,2 A,2 z2 | F,2 A,2 z2 |!ff! D2 d2 d2 | !>!G6 | !>!F6 | !>!D4 !>!C2 | !>!B,2 z4 | %283
 B,2 z4 | d2 z4 | d'2 z4 |!<(! D6-!<)! | D6 | !>!d2 z4 |] %289
V:3
[K:F]!mf! A,A, A,A, |!<(! F!>!F !>!FF!<)! | B,B, B,B, |!<(! F!>!F !>!FF!<)! |!f! EE"_cresc." EE | %5
 AA AA | dd dd | C2 z2 | F2 A2 | G2 C2 | F2 A2 | G2 C2 | FD TE2 | FD TE2 |!<(! F2 fe!<)! | dG C z | %16
 GE T^F2 | GE T^F2 |!<(! G,2 GF!<)! | EC F, z | FD TE2 | FD TE2 |!<(! F2 FE!<)! | DG, C z | %24
 GE T^F2 | GE T^F2 |!<(! G2 GF!<)! | E!>!C !>!F, z |[K:Bb]!p! b2 f2 | f2- f>g | e>d c>f | d>c B>f | %32
 g2 a>g | f2 g>d | e2 d2 |!<(! d2 c2!<)! | d2 A2 | B2- B3/2 z/ | B2 F2 | F2 z2 | B2 z2 | D2 B,2 | %42
 F4 | B,4 |[K:F]!mf! FD TE2 | FD TE2 | F2 fe |!<(! dG E z!<)! | GE T^F2 | GE T^F2 | G2 GF | %51
!<(! EC F z!<)! | FD TE2 | FD TE2 | F2 fe |!<(! dG E z!<)! | GE T^F2 | GE T^F2 | G2 GF | %59
!<(! EC F z!<)! | E^C T^D2 | E^C T^D2 |!<(! ^GG Bd!<)! |[K:A]!ff! E2 z2 |:[M:3/4]!f! !>!E2 d4 | %65
 !>!A2 c4 | D2 F4 | C2 E4 | B,2 d4 | C2 C4 | ^D2 F4 | E2 E4 | E2 E4 | !>!A,2 C4 | D2 F4 | C2 C4 | %76
 B,2 D4 | ^A,2 E4 | B,2 D2 E2 |1 A2 !>!A,2 z2 :|2 A2 !>!e2 z2 |:!ff! E4 (3AcA | G4 (3AcA | %83
 !>!F2 !>!F2 !>!F2 |{/F} !>!E6 | E4 (3AcA | G4 (3AcA | !>!F2 !>!F2 !>!F2 |{/F} !>!E6 |!p! F6 | c6 | %91
 F6 | c6 | F6 | c6 | F6 |1 c6 :|2 c6 || c6 |!<(! c6!<)! | c6 |!ff! !>!E2!ff! d2 d2 | !>!A2 c4 | %103
 D2 F2 F2 | C2 E4 | B,2 d2 d2 | C2 C4 | ^D2 F2 F2 | E2 E4 | E2 E2 E2 | A,2 C4 | D2 F2 F2 | C2 C4 | %113
 B,2 D2 D2 | ^A,2 E4 | B,2 D2 E2 | A2 A,2 z2 ||!mf! !>!E2 z4 | z6 | z6 | z6 | !>!E2 z4 | z6 | z6 | %124
 E2 z4 |:!p! G z z4 | z6 | A4 c2 | E4 c2 | B4 d2 | E4 G2 | A4 z2 | A2 z4 | G z z4 | z6 | A4 c2 | %136
 E4 c2 | B4 d2 | E4 G2 | A4 z2 |1 A2 z4 :|2 A2 z4 || G6 | F6 | E6 | ^D6 |!<(! ^D6!<)! | E6 | ^D6 | %149
 E6 | G6 | F6 | E6 | ^D6 | ^D6 | E6 | E2 z4 | z6 | z6 | z6 | z6 | E2 z4 | G z z4 | z6 | A4 c2 | %165
 E4 c2 | B4 d2 | E4 G2 | A4 z2 | A2 z4 | G z z4 | z6 | A4 c2 | E4 c2 | B4 d2 | E4 G2 | A4 z2 | %177
 A,2 z4 |!<(! !fermata!C6!<)! | !fermata!C6 ||[K:D][M:2/4]!p! .D z .D z |: .D z .D z | %182
 .D!>!f .D z | .D z .D z | .D z .D z |!<(! .D z .D z!<)! | .D!>!f .D z | .D z .D z | .D z .D z | %189
 Ee Ee | A,E A,E | ^G,E G,E | A,E CE | DB FB | Ec Ac | Ec ED | D C2 !fermata!z |!mf! A,A A,A | %198
 DA ^DA | EG A,2 |!<(! DA, D z!<)! | A,A A,A | DA ^DA | EG A2 |1!>(! D2 D2!>)! :|2 D2 !>!f2 || %206
[K:Bb][M:3/4]!mp! B,2 D2 z2 | F,2 D2 z2 | B,2 D2 z2 | F,2!p! D2 z2 | B,2 D2 z2 | F,2 D2 z2 | %212
 B,2 D2 z2 | F,2 D2 z2 | B,2 D2 z2 | F,2 D2 z2 | C2 E2 z2 | F,2 E2 z2 | C2 E2 z2 | F,2 E2 z2 | %220
 C2 E2 z2 | F2 F2 z2 | F2 A2 z2 | F2 A2 z2 | B,2 z4 | z2 z2 df | b4 c'a | g4 af | d2 c2 B2 | %229
 d2 z2 df | b4 c'a |"_cresc." g4 af | e2 d2 c2 | e2 z2!<(! de!<)! | e'4!>(! d'_d'!>)! | %235
 c'2 z2!<(! de!<)! |!sfz! d'4!>(! ^c'=c'!>)! | b2 z2 df |"_dim." d4 _df | _d4 cf | B6- | B2 z2 z2 | %242
 !>!F2 z4 | z6 | !>!F2 z4 | z6 | z6 | z6 |!p! B,2 D2 z2 | F,2 D2 z2 | B,2 D2 z2 | F,2 D2 z2 | %252
 B,2 D2 z2 | F,2 D2 z2 | C2 E2 z2 | F,2 E2 z2 | C2 E2 z2 | F,2 E2 z2 | C2 E2 z2 | F,2 E2 z2 | %260
 F,2 E2 z2 | F,2 E2 z2 | d'b fB FD | B,2 F2 df | b4 c'a | g4 af | d2 c2 B2 | d2 z2 df | b4 c'a | %269
"_cresc." g4 af | e2 d2 c2 | e2 z2!<(! de!<)! |!sfz! e'4!>(! d'_d'!>)! | c'2 z2!<(! de!<)! | %274
!sfz! d'4!>(! ^c'=c'!>)! | b2 z2 df |"_dim." d4 _df | _d4 cf |!ff! B2 f2 f2 | f2 f2 f2 | f2 f2 f2 | %281
 f2 f2 f2 | f2 z4 | f2 z4 | f2 z4 | f'2 z4 |!<(! F6-!<)! | F6 | !>!f2 z4 |] %289

